!!!!SEGMENT: pl-kk--kk-i-513--013_haser-august-ferdinand-miserere-rede-mihi-letitiam.krn
!!!id: 17xx:1853
!!!COM: Häser, August Ferdinand
!!!OTL: Miserere - Redde mihi letitiam
!!!PDT:
!!!SMS-siglum: PL-Kk
!!!SMS-shelfmark: Kk.I.513
!!!NIFC-rismID: 1001138504
!!!URL-scan: http://repozytorium.nifc.pl/skany/pl-kk-nut--i-513
!!!ONB-nifc:
!!!SMS-variant:
!!!SMS-altvar:
**kern	**kern	**kern	**text	**dynam	**kern	**text	**dynam	**kern	**text	**dynam	**kern	**text
*part6	*part5	*part4	*part4	*part4	*part3	*part3	*part3	*part2	*part2	*part2	*part1	*part1
*staff6	*staff5	*staff4	*staff4	*	*staff3	*staff3	*	*staff2	*staff2	*	*staff1	*staff1
*	*I"[Organo]	*I"Basso.	*	*	*I"Tenore.	*	*	*I"Alto	*	*	*I"Soprano.	*
*	*I'[org]	*I'B	*	*	*I'T	*	*	*I'A	*	*	*I'S	*
*group2	*group2	*group1	*	*	*group1	*	*	*group1	*	*	*group1	*
*clefF4	*clefG2	*clefF4	*	*	*clefC4	*	*	*clefG2	*	*	*clefG2	*
*k[b-e-a-]	*k[b-e-a-]	*k[b-e-a-]	*	*	*k[b-e-a-]	*	*	*k[b-e-a-]	*	*	*k[b-e-a-]	*
*M3/4	*M3/4	*M3/4	*	*	*M3/4	*	*	*M3/4	*	*	*M3/4	*
=1	=1	=1	=1	=1	=1	=1	=1	=1	=1	=1	=1	=1
*2\right	*2\right	*2\right	*	*	*2\right	*	*	*2\right	*	*	*2\right	*
*^	*^	*	*	*	*	*	*	*	*	*	*	*
!	!	!LO:TX:a:i:t=No 13.	!	!	!LO:TX:a:i:t=No 13.	!	!	!LO:TX:a:i:t=No 13.	!	!	!	!	!	!
!	!	!	!	!	!	!	!LO:TX:t=P:problem:all\right:global	!	!	!LO:TX:a:i:t=No 13.	!	!	!LO:TX:i:t=No 13.	!
!	!	!	!	!LO:TX:t=P:problem:all\right:global	!	!	!LO:TX:t=P:problem:kolejność znaków B- E- A-	!	!	!LO:TX:b:i:t=ſostenuto.	!	!	!LO:TX:t=P:problem:brak oznaczenia tempa	!
!LO:TX:t=P:problem:all\right:global	!	!LO:TX:t=P:problem:all\right:global	!	!LO:TX:a:t=Soli	!	!	!LO:TX:a:t=Soli	!	!	!	!	!LO:DY:b	!LO:TX:t=P:problem:all\right:global	!
!LO:TX:t=P:problem:brak oznaczenia tempa	!	!LO:TX:t=P:problem:brak oznaczenia tempa	!	!LO:TX:a:B:t=ſostenuto.	!	!	!LO:TX:a:B:t=ſostento	!	!	!LO:TX:t=P:problem:brak oznaczenia tempa	!	!	!LO:TX:a:t=Solo	!
2B-/	2.E-\	2ee-/	2g\	2E-\	Red-	.	2B-\	Red-	.	2g/	Red-	p	2ee-\	Red-
4e-/	.	8dd/L	4g\	4E-\	-de	.	4e-\	-de	.	4g/	-de	.	(8dd\L	-de
.	.	8cc/J	.	.	.	.	.	.	.	.	.	.	8cc\J)	.
=2	=2	=2	=2	=2	=2	=2	=2	=2	=2	=2	=2	=2	=2	=2
2c/	2F\	8.b-/L	2.f\	4F\	mi-	.	4c\	mi-	.	4f/	mi-	.	8.b-/L	red-
.	.	16a-/Jk	.	.	.	.	.	.	.	.	.	.	16a-/Jk	.
.	.	2a-/	.	4F\	-hi	.	4c\	-hi	.	4f/	-hi	.	4a-/	-de
8F\L 8c	4ryy	.	.	8F\	red-	.	8c\	red-	.	8a-/	red-	.	4r	.
8E-\J 8c-X	.	.	.	8E-\	-de	.	8c-X\	-de	.	8a-/	-de	.	.	.
*v	*v	*	*	*	*	*	*	*	*	*	*	*	*	*
*	*v	*v	*	*	*	*	*	*	*	*	*	*	*
=3	=3	=3	=3	=3	=3	=3	=3	=3	=3	=3	=3	=3
*	*Xtuplet	*	*	*	*	*	*	*	*	*	*	*
2.D\ 2.F 2.B-	[4aa-\	4D/	mi-	.	4B-\	mi-	.	4f/	mi-	.	[4aa-\	red-
!	!LO:TX:t=P:problem:klamra łukowa, kropka zamiast numeru:global	!	!	!	!	!	!	!	!	!	!LO:TX:t=P:problem:triola oznaczona liczbą i łukiem:global	!
.	12aa-\L]	4D/	-hi	.	4B-\	-hi	.	4f/	-hi	.	12aa-\L]	.
.	12ff\	.	.	.	.	.	.	.	.	.	12ff\	.
.	12dd\J	.	.	.	.	.	.	.	.	.	12dd\J	.
!	!	!	!	!	!LO:SIC:l:s=le-:v	!	!	!	!	!	!	!
.	12b-\L	4D/	le-	.	4B-\	li-	.	4f/	le-	.	12b-/L	-de
.	12cc\	.	.	.	.	.	.	.	.	.	12cc/	.
.	12a-\J	.	.	.	.	.	.	.	.	.	12a-/J	.
=4	=4	=4	=4	=4	=4	=4	=4	=4	=4	=4	=4	=4
.	8qb-/	.	.	.	.	.	.	.	.	.	8qb-/	.
*	*^	*	*	*	*	*	*	*	*	*	*	*
4D\ 4F 4B-	4a-/	4a-\	8.D\	-ti-	.	8.B-\	-ti-	.	8.f/	-ti-	.	4a-/	mi-
!	!	!	!LO:N:vis=8	!	!	!	!	!	!	!	!	!	!
.	.	.	16D\	-ti-	.	16B-\	-ti-	.	16f/	-ti-	.	.	.
4E-\ 4B-	4r	2g\	4E-\	-am	.	4B-\	-am	.	4e-/	-am	.	4g/	-hi
!	!	!	!	!	!LO:DY:b	!LO:TX:a:t=tulli	!	!	!	!	!	!	!
4C/	4ee-/	.	4C/	le-	f	4c\	le-	.	4g/	le-	.	4ee-\	le-
=5	=5	=5	=5	=5	=5	=5	=5	=5	=5	=5	=5	=5	=5
!	!	!	!	!	!	!LO:TX:a:t=P:problem:ozn. dynamiczne na pięciolinii	!	!	!	!	!	!	!
4F\ 4c	4ee-/	4an\	8.F\	-ti-	.	8.c\	-ti-	f	8.an/	-ti-	.	8.ee-\	-ti-
.	.	.	16F\	-ti-	.	16c\	-ti-	.	16a/	-ti-	.	16ee-\	-ti-
4G\	2dd/	4b-\	4G\	-am	.	4B-\	-am	.	4b-/	-am	.	4dd\	-am
4F\ 4Bn	.	4a-X\	8F\	sa-	.	8Bn\	sa-	.	8a-X/	sa-	.	8dd\	sa-
.	.	.	8F\	-lu-	.	8B\	-lu-	.	8a-/	-lu-	.	8dd\	-lu-
!	!	!	!LO:LB:g=original	!	!	!LO:LB:g=original	!	!	!LO:LB:g=original	!	!	!LO:LB:g=original	!
=6	=6	=6	=6	=6	=6	=6	=6	=6	=6	=6	=6	=6	=6
*^	*	*	*	*	*	*	*	*	*	*	*	*	*
4.c/	2.E-\	4.gg/	2.g\	2E-\	-ta-	.	[4c\	-ta-	.	2g/	-ta-	.	[4gg\	-ta-
.	.	.	.	.	.	.	8c\L]	.	.	.	.	.	8gg\L]	.
8Bn/L	.	8dd/L	.	.	.	.	8B-\J	.	.	.	.	.	8dd\J	.
8c/	.	8ee-/	.	4E-\	-ris	.	8c\L	-ris	.	4g/	-ris	.	8ee-\L	-ris
8e-/J	.	8cc/J	.	.	.	.	8e-\J	.	.	.	.	.	8cc\J	.
=7	=7	=7	=7	=7	=7	=7	=7	=7	=7	=7	=7	=7	=7	=7
!	!	!	!	!LO:TX:a:t=f	!	!	!	!	!	!	!	!	!	!
4d/	2.F\	4.b-/	2f\	2.F\	tu-	.	(4d\	tu-	.	2f/	tu-	.	[4b-\	tu-
4c/	.	.	.	.	.	.	4c\)	.	.	.	.	.	8b-\L]	.
.	.	8an/L	.	.	.	.	.	.	.	.	.	.	8an\	.
4e-/	.	8dd/	4a\	.	.	.	4e-\	.	.	4an/	.	.	8dd\	.
.	.	8cc/J	.	.	.	.	.	.	.	.	.	.	8cc\J	.
*v	*v	*	*	*	*	*	*	*	*	*	*	*	*	*
*	*v	*v	*	*	*	*	*	*	*	*	*	*	*
=8	=8	=8	=8	=8	=8	=8	=8	=8	=8	=8	=8	=8
!	!	!	!	!	!	!	!	!LO:TX:t=P:problem:all\right:global	!	!	!	!
4BB-\ 4F 4B-	4d/ 4b-	4BB-/	-i	.	4d\	-i	.	4b-\	-i	.	4b-\	-i,
!	!	!	!	!LO:DY:a:t=pp.	!	!	!LO:DY:a	!	!	!LO:DY:b	!	!
4r	4r	4r	.	pp	4r	.	p	4r	.	p	4r	.
4d\ 4f	4b-/	4d\	et	.	4f\	et	.	4b-\	et	.	4r	.
=9	=9	=9	=9	=9	=9	=9	=9	=9	=9	=9	=9	=9
*	*^	*	*	*	*	*	*	*	*	*	*	*
2c\ 2e-	8.b-/L	4ryy	8.c\	spi-	.	8.e-\	spi-	.	8.b-/	ſpi-	.	4r	.
!	!	!	!	!	!	!	!	!	!LO:SIC:s=16an:v	!	!	!	!
.	16an/Jk	.	16c\	-ri-	.	16e-\	-ri-	.	16a-/	-ri-	.	.	.
!	!	!	!	!	!	!	!	!	!LO:SIC:s=4an:v	!	!	!	!
.	4r	2a\	4c\	-tu	.	4d\	-tu	.	4a-/	-tu	.	4r	.
!	!	!	!	!	!	!	!	!LO:DY:b	!LO:SIC:s=4an:v	!	!	!	!
4F\ 4c	4ee-/	.	4F\	et	f	4c\	et	rfz	4a-/	et	.	4ee-\	et
!LO:LB:g=original	!LO:LB:g=original	!	!	!	!	!	!	!	!	!	!	!	!
=10	=10	=10	=10	=10	=10	=10	=10	=10	=10	=10	=10	=10	=10
2B-\	8.ee-/L	2f\	8.B-\	ſpi-	.	8.B-\	ſpi-	.	8.f/	ſpi-	.	8.ee-\	ſpi-
.	16dd/Jk	.	16B-\	-ri-	.	16B-\	-ri-	.	16f/	-ri-	.	16dd\	-ri-
.	4dd/	.	4B-\	-tu	.	4d\	-tu	.	4f/	-tu	.	4dd\	-tu
4B-\	16dd/LL	16f\LL 16a-	8B-\	prin-	.	16f\LL	prin-	.	16a-/LL	prin-	.	(16dd\LL	prin-
.	16ee-/	16e-\ 16g	.	.	.	16e-\JJ	.	.	16g/JJ	.	.	16ee-\JJ)	.
.	16ff/	16d\ 16f	8B-\	-ci-	.	16d\LL	-ci-	.	16f/LL	-ci-	.	(16ff\LL	-ci-
.	16gg/JJ	16c\JJ 16e-	.	.	.	16c\JJ	.	.	16e-/JJ	.	.	16gg\JJ)	.
*	*v	*v	*	*	*	*	*	*	*	*	*	*	*
=11	=11	=11	=11	=11	=11	=11	=11	=11	=11	=11	=11	=11
!	!	!	!	!LO:DY:a	!	!	!LO:DY:b	!LO:TX:t=P:problem:ozn. dynamiczne na środku pięciolinii	!	!	!LO:TX:t=P:problem:klamra łukowa	!
*	*	*	*	*	*	*	*	*	*	*	*Xtuplet	*
2.D\ 2.F 2.B-	12aa-\L	4BB-/	-pa-	f	4B-\	-pa-	f	4d/	-pa-	f	12aa-\L	-pa-
.	12ff\	.	.	.	.	.	.	.	.	.	12ff\	.
.	12dd\J	.	.	.	.	.	.	.	.	.	12dd\J	.
!	!	!	!	!	!	!	!	!	!	!LO:DY:b	!	!
.	8b-\L	8D/	-li	.	8B-\	-li	.	8f/	-li	p	8b-\	-li
.	8cc\	8D/	con-	.	8B-\	con-	.	8f/	con-	.	8cc\	con-
.	8b-\	8D/	-fir-	.	8B-\	-fir-	.	8f/	-fir-	.	8b-/	-fir-
.	8a-\J	8D/	-ma	.	8B-\	-ma	.	8f/	-ma.	.	8a-/	-ma
*	*	*	*	*	*	*	*	*	*	*	*tuplet	*
!	!	!LO:LB:g=original	!	!	!LO:LB:g=original	!	!	!LO:LB:g=original	!	!	!LO:LB:g=original	!
=12	=12	=12	=12	=12	=12	=12	=12	=12	=12	=12	=12	=12
4E-\ 4B-	4e-/ 4g	4E-\	me	.	4B-\	me	.	4e-/	me	.	4g/	me,
4r	2gg\	4r	.	.	4r	.	.	4r	.	.	[2gg\	red-
!	!	!	!	!	!	!	!LO:DY:b:t=pp&colon;	!	!	!	!	!
4Bn\ 4d	.	4Bn\	red-	.	(4d\	red-	pp	4r	.	.	.	.
=13	=13	=13	=13	=13	=13	=13	=13	=13	=13	=13	=13	=13
!	!	!	!	!LO:DY:b	!	!	!	!	!	!	!	!
2c\ 2e-	8.gg\L	2c\	-de	pp	4e-\)	.	.	4r	.	.	8.gg\L]	.
.	16ee-\Jk	.	.	.	.	.	.	.	.	.	16ee-\Jk	.
.	2cc\	.	.	.	4e-\	-de	.	2cc\	red-	.	2cc\	-de
4En\ 4c	.	4En\	red-	.	4G/	red-	.	.	.	.	.	.
=14	=14	=14	=14	=14	=14	=14	=14	=14	=14	=14	=14	=14
*	*^	*	*	*	*	*	*	*	*	*	*	*
2F\ 2A-	4cc/	2ryy	2F\	-de	.	4A-\	-de	.	8.cc\L	.	.	4cc\	mi-
.	.	.	.	.	.	.	.	.	16a-\Jk	.	.	.	.
.	4ff/	.	.	.	.	4A-\	le-	.	4f/	-de	.	4ff\	-hi
!	!	!	!LO:TX:a:t=P:problem:ozn. dyn. na środku pięciolinii	!	!	!	!	!	!	!	!	!	!
4F\ 4f	8.aa-/L	4a-\	4F\	le-	f	4f\	.	.	4a-/	le-	.	(8.aa-\L	le-
.	16ff/Jk	.	.	.	.	.	.	.	.	.	.	16ff\Jk)	.
*	*v	*v	*	*	*	*	*	*	*	*	*	*	*
=15	=15	=15	=15	=15	=15	=15	=15	=15	=15	=15	=15	=15
2.BB-\ 2.B-	8.f/L 8.a- 8.ee-	8.B-\	-ti-	.	8.f\	-ti-	.	8.a-/	-ti-	.	8.ee-\	-ti-
.	16f/Jk 16a- 16dd	16B-\	-ti-	.	16f\	-ti-	.	16a-/	-ti-	.	16dd\	-ti-
.	4f/ 4a- 4dd	4B-\	-am	.	4f\	-am	.	4a-/	-am	.	4dd\	-am
.	4g/ 4b- 4ee-	8B-\	sa-	.	8e-\	sa-	.	8g/	sa-	.	8ee-\	sa-
.	.	8B-\	-lu-	.	8e-\	-lu-	.	8g/	-lu-	.	8ee-\	-lu-
=16	=16	=16	=16	=16	=16	=16	=16	=16	=16	=16	=16	=16
.	.	.	.	.	.	.	.	.	.	.	8qqff/	.
*	*^	*	*	*	*	*	*	*	*	*	*	*
!	!	!	!	!	!	!	!	!	!	!	!	!LO:N:vis=2	!
2B-\ 2d	4ff/	2a-\	2B-\	-ta-	.	2d\	-ta-	.	2a-/	-ta-	.	4ff\	-ta-
!	!LO:TX:t=P:problem:triola bez liczby i łuku	!	!	!	!	!	!	!	!	!	!	!	!
.	.	.	.	.	.	.	.	.	.	.	.	16qqff/	.
!	!	!	!	!	!	!	!	!	!	!	!	!LO:TUP:b	!
.	12ff/L	.	.	.	.	.	.	.	.	.	.	12ff/L	.
.	12ee-/	.	.	.	.	.	.	.	.	.	.	12ee-/	.
.	12dd/J	.	.	.	.	.	.	.	.	.	.	12dd/J	.
!	!LO:TX:t=P:problem:triola bez liczby i łuku	!	!	!	!	!	!	!	!	!	!	!LO:TUP:b	!
4BB-\ 4B-	12cc/L	4d\ 4f	4BB-/	-ris	.	4d\	-ris	.	4f/	-ris	.	12cc/L	-ris
.	12b-/	.	.	.	.	.	.	.	.	.	.	12b-/	.
.	12a-/J	.	.	.	.	.	.	.	.	.	.	12a-/J	.
*	*v	*v	*	*	*	*	*	*	*	*	*	*	*
!LO:LB:g=original	!LO:LB:g=original	!	!	!	!	!	!	!	!	!	!LO:LB:g=original	!
=17	=17	=17	=17	=17	=17	=17	=17	=17	=17	=17	=17	=17
2E-\ 2B-	4d/ 4a-	4E-\	tu-	.	4B-\	tu-	.	4d/	tu-	.	4a-/	tu-
.	4e-/ 4g	4E-\	-i	.	4B-\	-i	.	4e-/	-i	.	4g/	-i
!	!	!	!	!LO:DY:a	!	!	!LO:DY:b	!	!	!	!LO:N:vis=16	!
8r	8r	8r	.	p	8r	.	p	8r	.	.	8r	.
8E-\ 8B-	8e-/ 8g	8E-\	et	.	8B-\	et	.	8e-/	et	.	8g/	et
!	!	!	!	!	!LO:LB:g=original	!	!	!LO:LB:g=original	!	!	!	!
=18	=18	=18	=18	=18	=18	=18	=18	=18	=18	=18	=18	=18
*^	*^	*	*	*	*	*	*	*	*	*	*	*
!	!	!	!	!	!	!	!	!	!	!LO:N:vis=4	!	!	!	!
8B-/L	8F\L	8a-X/L	4e-\	8F\	spi-	.	8B-\	spi-	.	8e-/	ſpi-	.	8a-/	ſpi-
8e-/J	8F#X\J	8an/J	.	16F#X\	-ri-	.	16e-\	-ri-	.	16e-/	-ri-	.	16an/	-ri-
.	.	.	.	16F#\	-tu	.	16e-\	-tu	.	16e-/	-tu	.	16a/	-tu
8G\L	2ryy	8b-/L	8e-\L	8G\	ſpi-	.	8e-\	spi-	.	8e-/	prin-	.	8b-\	ſpi-
!	!	!	!	!	!	!	!	!	!	!	!	!	!LO:N:vis=8	!
8G\ 8d	.	8bn/	8f\	16G\	-ri-	.	16d\	-ri-	.	16f/	-ci	.	16bn\	-ri-
!	!	!	!	!	!	!	!	!	!	!	!	!	!LO:N:vis=8	!
.	.	.	.	16G\	-tu	.	16d\	-tu	.	16f/	prin-	.	16b\	-tu
8A-\ 8c	.	8cc/	8e-\	8A-\	prin-	.	8c\	prin-	.	8e-/	.	.	8cc\	prin-
!	!	!LO:SIC:s=8a-:t=druga warstwa	!	!LO:SIC:s=8Fn:v	!	!	!	!	!	!	!	!	!	!
8F#\J 8B-	.	8dd/J	8a\J	8F#\	-ci-	.	8B-\	-ci-	.	8a-/	-ci-	.	8dd\	-ci-
=19	=19	=19	=19	=19	=19	=19	=19	=19	=19	=19	=19	=19	=19	=19
8B-/L	4G\	4.ee-/	4b-\	(4G\	-pa-	.	8B-\L	-pa-	.	(4b-/	-pa-	.	[4ee-\	-pa-
8d-X/J	.	.	.	.	.	.	8d-X\J	.	.	.	.	.	.	.
2c/	2A-\	.	2a-\	4A-\)	.	.	4c\	-li	.	4a-/)	.	.	8ee-\L]	.
.	.	8aa-/L	.	.	.	.	.	.	.	.	.	.	8aa-\J	.
.	.	8cc/	.	8A-\	-li	.	8c\	con-	.	8a-/	-li	.	8cc\	-li
.	.	8ff/J	.	8A-\	con-	.	(8c\	-fir-	.	8a-/	con-	.	8ff\	con-
*v	*v	*	*	*	*	*	*	*	*	*	*	*	*	*
=20	=20	=20	=20	=20	=20	=20	=20	=20	=20	=20	=20	=20	=20
2B-\	2ee-/	4g\	2B-\	-fir-	.	2B-\)	.	.	4g/	-fir-	.	2ee-\	-fir-
.	.	4f\	.	.	.	.	.	.	4f/	.	.	.	.
4B-\ 4f	4dd/	4a-\	4B-\	-ma	.	4f\	-ma	.	4a-/	-ma	.	4dd\	-ma
!	!	!	!	!	!	!	!	!	!	!	!	!LO:LB:g=original	!
=21	=21	=21	=21	=21	=21	=21	=21	=21	=21	=21	=21	=21	=21
*	*	*	*	*	*	*	*	*	*	*	*	*Xtuplet	*
*^	*	*	*	*	*	*	*	*	*	*	*	*	*
4Bn\ 4f	4ryy	[<4gg/	2g\	4Bn\	me	.	4f\	con-	.	2g\	me	.	[4gg\	me
!LO:SIC:s=4c:t=druga warstwa	!	!LO:TX:t=P:problem:triola bez liczby i łuku	!	!	!	!	!	!	!	!	!	!	!LO:TX:t=P:problem:triola bez liczby i łuku	!
2e-/	4d\	12gg/L]	.	4c\	.	.	4e-\	-fir-	.	.	.	.	12gg\L]	.
.	.	12ff/	.	.	.	.	.	.	.	.	.	.	12ff\	.
.	.	12gg/J	.	.	.	.	.	.	.	.	.	.	12gg\J	.
!	!	!LO:TX:t=P:problem:triola bez liczby i łuku	!	!	!	!	!	!	!	!	!	!	!LO:TX:t=P:problem:triola bez liczby i łuku	!
.	4A-\	12aa-/L	4cc\	4A-\	con-	.	4e-\	-ma	.	4cc/	con-	.	12aa-\L	.
.	.	12cc/	.	.	.	.	.	.	.	.	.	.	12cc\J	.
.	.	12ff/J	.	.	.	.	.	.	.	.	.	.	12ff\	con-
=22	=22	=22	=22	=22	=22	=22	=22	=22	=22	=22	=22	=22	=22	=22
!	!	!	!	!	!	!	!	!	!LO:DY:b	!	!	!	!	!
4e-/	2B-\	4ee-/	4g\	2B-\	-fir-	.	4e-\	con-	f	4g/	-fir-	.	[4ee-\	-fir-
!	!	!	!	!	!	!	!	!	!	!	!	!	!LO:N:vis=8	!
4f/	.	8.ee-/L	2a-\	.	.	.	4f\	-fir-	.	4a-/	.	.	8.ee-\L]	.
.	.	16dd/Jk	.	.	.	.	.	.	.	.	.	.	16dd\Jk	.
4B-\ 4d	4ryy	8gg/L	.	4BB-/	-ma	.	4d\	-ma	.	4a-/	-ma	.	8gg\L	-ma
.	.	8ff/J	.	.	.	.	.	.	.	.	.	.	8ff\J	.
*v	*v	*	*	*	*	*	*	*	*	*	*	*	*	*
=23	=23	=23	=23	=23	=23	=23	=23	=23	=23	=23	=23	=23	=23
2E-\ 2B-	2ee-/	2g\	2E-\	me	.	2e-\	me.	.	2g/	me.	.	2ee-\	me.
!LO:TX:t=P:problem:dopisane ołówkiem "poprawione dotąd"	!	!	!	!	!	!	!	!	!	!	!	!	!
4r	4r	4ryy	4r	.	.	4r	.	.	4r	.	.	4r	.
*	*v	*v	*	*	*	*	*	*	*	*	*	*	*
==	==	==	==	==	==	==	==	==	==	==	==	==
*-	*-	*-	*-	*-	*-	*-	*-	*-	*-	*-	*-	*-
!!!system-decoration: [(g1)][(g2)]
!!!RDF**kern: >= above
!!!RDF**kern: <= below
!!!ENC: Andrzej Kubiczek
!!!END: 2021-01-02
!!!ENC:Anna Matuszewska
!!!END:2021-01-04
